X:1
T:Bonny at Morn
M:3/4
L:1/4
K:Bb
 A| d3/2- e/2d/2 c/2| d GA/2-B/2| c3/2- B/2A/2 G/2| F- G A| d3/2 e/2d/2-c/2|\
 d G A| c A F| G2 A| d3/2- e/2d/2 c/2| d GA/2-B/2| c3/2- B/2A/2 G/2|\
 F- G A|G/2-F/2G/2-A/2B/2-c/2| d g f| d f A| G2 z| G g g| G2- B| F f f|\
 F2 A| G3/2 A/2B/2-c/2| d g f| d f A| G2||
